X:26
T:Mary McNamara Jig (Name Unknown)
R:Jig
S:Jig from Concertina CD
M:6/8
L:1/8
K:G
D|:GFG BAG|EGE DB,A,|G,B,D BAG|ABA DEF|GFG BAG|EGE DB,A,|G,B,D BAG|DB,A,
 G,2 D:||:G3 edB|edB AGE|GBe dBG|ABA AGE|G3 edB|edB AGE|DB,D BAG|DB,A, G
,2 D:|
